X:1
T:Belovèd, Sleep, 46.86
T:Belovèd, Sleep, 46.86
T:William Henry Clark (1854-1925)
T:Public Domain Courtesy of the Cyber Hymnal™
C:William Henry Clark (1854-1925)
Z:Public Domain
Z:Courtesy of the Cyber Hymnal™
%%score ( 1 2 ) ( 3 4 )
L:1/8
Q:1/4=150
M:6/4
K:C
V:1 treble 
V:2 treble 
V:3 bass 
V:4 bass 
V:1
|: [EG]6 G4 [FG]2 | [EG]6- [EG]4 [EG]2 | [FA]4 [FA]2 [Fc]4 [FA]2 | [EG]6- [EG]4 [EG]2 | %4
 [Gc]4 [Gd]2 [Ge]4 [EG]2 | [FA]4 [Fc]2 [Fc]4 [FA]2 | G4 [FG]2 [FG]4 [FB]2 | %7
 [Ec]6- [Ec]4 z2"^Play 4 times" :| [EG]2 | G6 [FG]6 | [Ec]6- [Ec]4 |] %11
V:2
|: x6 (D2 E2) x2 | x12 | x12 | x12 | x12 | x12 | (D2 E2) x8 | x12 :| x2 | (D4 E2) x6 | x10 |] %11
V:3
|: [C,C]6 (B,2 C2) [G,D]2 | [C,C]6- [C,C]4 [C,C]2 | [F,C]4 [F,C]2 [F,A,]4 [F,C]2 | %3
 [C,C]6- [C,C]4 [C,C]2 | [E,C]4 [G,B,]2 C4 [C,C]2 | [F,C]4 [F,A,]2 [F,A,]4 [F,C]2 | %6
 (B,2 C2) [G,D]2 [G,B,]4 [G,D]2 | [C,C]6- [C,C]4 z2"^Play 4 times" :| [C,C]2 | (B,4 C2) [G,D]6 | %10
 [C,C]6- [C,C]4 |] %11
V:4
|: x6 G,4 x2 | x12 | x12 | x12 | x6 C4 x2 | x12 | G,4 x8 | x12 :| x2 | G,6 x6 | x10 |] %11

